src/icons/pod.svg

<?xml version="1.0" encoding="UTF-8"?>
<svg xmlns="http://www.w3.org/2000/svg" xmlns:xlink="http://www.w3.org/1999/xlink" width="32.978246" height="32" viewBox="0 0 32.978246 32" version="1.1">
<g id="surface1">
<path style=" stroke:none;fill-rule:nonzero;fill:rgb(19.607843%,42.352942%,89.803922%);fill-opacity:1;" d="M 16.378906 0.847656 C 16.105469 0.859375 15.835938 0.929688 15.585938 1.046875 L 4.726562 6.238281 C 4.15625 6.507812 3.742188 7.023438 3.601562 7.632812 L 0.921875 19.292969 C 0.796875 19.835938 0.898438 20.402344 1.203125 20.871094 C 1.242188 20.925781 1.28125 20.980469 1.324219 21.035156 L 8.839844 30.382812 C 9.234375 30.871094 9.832031 31.15625 10.464844 31.15625 L 22.519531 31.15625 C 23.152344 31.15625 23.75 30.871094 24.144531 30.382812 L 31.65625 21.03125 C 32.050781 20.542969 32.199219 19.898438 32.058594 19.289062 L 29.375 7.632812 C 29.234375 7.023438 28.820312 6.507812 28.25 6.238281 L 17.386719 1.046875 C 17.074219 0.898438 16.730469 0.828125 16.382812 0.84375 Z M 16.378906 0.847656 "/>
<path style=" stroke:none;fill-rule:nonzero;fill:rgb(100%,100%,100%);fill-opacity:1;" d="M 16.375 0.00390625 C 16.085938 0.0195312 15.800781 0.0898438 15.539062 0.21875 L 4.070312 5.691406 C 3.46875 5.980469 3.03125 6.523438 2.886719 7.167969 L 0.0585938 19.472656 C -0.0742188 20.046875 0.03125 20.648438 0.355469 21.144531 C 0.390625 21.203125 0.433594 21.261719 0.476562 21.316406 L 8.414062 31.183594 C 8.828125 31.699219 9.460938 32 10.128906 32 L 22.855469 32 C 23.523438 32 24.152344 31.699219 24.566406 31.183594 L 32.5 21.3125 C 32.917969 20.792969 33.074219 20.117188 32.925781 19.472656 L 30.09375 7.164062 C 29.945312 6.519531 29.507812 5.976562 28.90625 5.691406 L 17.441406 0.214844 C 17.109375 0.0546875 16.746094 -0.015625 16.378906 0 Z M 16.382812 0.847656 C 16.730469 0.832031 17.074219 0.898438 17.386719 1.046875 L 28.25 6.234375 C 28.820312 6.507812 29.234375 7.019531 29.375 7.632812 L 32.058594 19.289062 C 32.199219 19.902344 32.050781 20.542969 31.65625 21.035156 L 24.140625 30.382812 C 23.746094 30.871094 23.148438 31.15625 22.515625 31.15625 L 10.460938 31.15625 C 9.832031 31.15625 9.234375 30.871094 8.839844 30.382812 L 1.324219 21.035156 C 1.28125 20.984375 1.242188 20.929688 1.203125 20.871094 C 0.898438 20.40625 0.796875 19.835938 0.921875 19.292969 L 3.601562 7.636719 C 3.742188 7.027344 4.15625 6.511719 4.722656 6.238281 L 15.585938 1.046875 C 15.835938 0.929688 16.105469 0.863281 16.382812 0.847656 Z M 16.382812 0.847656 "/>
<path style=" stroke:none;fill-rule:evenodd;fill:rgb(100%,100%,100%);fill-opacity:1;" d="M 9.867188 11.359375 L 16.488281 9.441406 L 23.109375 11.359375 L 16.488281 13.28125 Z M 9.867188 12.097656 L 9.867188 19.140625 L 16.035156 22.558594 L 16.066406 13.941406 Z M 23.109375 12.097656 L 23.109375 19.140625 L 16.941406 22.558594 L 16.910156 13.941406 Z M 23.109375 12.097656 "/>
</g>
</svg>

<svg role="img" viewBox="0 0 32.978 32" xmlns="http://www.w3.org/2000/svg"><path d="M16.379.848a2.083 2.083 0 0 0-.793.199L4.726 6.238c-.57.27-.984.785-1.124 1.395l-2.68 11.66a2.046 2.046 0 0 0 .281 1.578c.04.055.078.11.121.164l7.516 9.348c.394.488.992.773 1.625.773H22.52c.632 0 1.23-.285 1.625-.773l7.511-9.352a2.045 2.045 0 0 0 .403-1.742L29.375 7.633a2.056 2.056 0 0 0-1.125-1.395L17.387 1.047a2.116 2.116 0 0 0-1.004-.203Zm0 0" style="stroke:none;fill-rule:nonzero;fill:rgb(19.607843%,42.352942%,89.803922%);fill-opacity:1"/><path d="M16.375.004c-.29.016-.574.086-.836.215L4.07 5.69a2.17 2.17 0 0 0-1.183 1.477L.059 19.473a2.16 2.16 0 0 0 .296 1.672c.036.058.079.117.122.171l7.937 9.868A2.2 2.2 0 0 0 10.13 32h12.726c.668 0 1.297-.3 1.711-.816l7.934-9.872a2.16 2.16 0 0 0 .426-1.84L30.094 7.165a2.171 2.171 0 0 0-1.188-1.473L17.441.215A2.219 2.219 0 0 0 16.38 0Zm.008.844c.347-.016.691.05 1.004.199L28.25 6.234c.57.274.984.786 1.125 1.399l2.684 11.656a2.053 2.053 0 0 1-.403 1.746l-7.515 9.348a2.089 2.089 0 0 1-1.625.773H10.46a2.087 2.087 0 0 1-1.621-.773l-7.516-9.348a2.043 2.043 0 0 1-.402-1.742l2.68-11.656c.14-.61.554-1.125 1.12-1.399l10.864-5.191c.25-.117.52-.184.797-.2m0 0" style="stroke:none;fill-rule:nonzero;fill:rgb(100%,100%,100%);fill-opacity:1"/><path d="m9.867 11.36 6.621-1.919 6.621 1.918-6.62 1.922Zm0 .738v7.043l6.168 3.418.031-8.618Zm13.242 0v7.043l-6.168 3.418-.03-8.618Zm0 0" style="stroke:none;fill-rule:evenodd;fill:rgb(100%,100%,100%);fill-opacity:1"/></svg>
